X:1
T:[ID 2-68]
T:[ID 2-68]
T:Bezeichnung standardisiert: Menuet [mit Trio] Menuet Con Trio
T:Urheber unbekannt Datum in der hier transkribierten schriftlichen Quelle: 1767
C:Urheber unbekannt
C:Datum in der hier transkribierten schriftlichen Quelle: 1767
L:1/8
M:3/4
K:G
V:1 treble 
V:1
 g2 g2 g2 | d2 d2 d2 | G2 (3GAB (3GAB | D4 (3DEF | G2 GBAc | B2 Bdce | d2 c2 B2 | A6 :: fg a2 a2 | %9
 affd d2 | ga b2 b2 | bggd d2 | d3 cBc | d3 cBc | (3edc B2 TA2 | G6 :| %16
[M:3/4]"^Trio" !fermata!B4 GB | c4 Ac | d2 c2 B2 | AGFE D2 | B4 GB | c4 Ac | dc B2 TA2 | G6 :: %24
 A2 AAAA | G2 dB G2 | A2 AAAA | G2 dB G2 | B4 GB | c4 Ac | dc B2 TA2 | G6 :| %32

